src/assets/bold/lm-split-cells-bold.svg

<svg width="24" height="24" viewBox="0 0 24 24" fill="none" xmlns="http://www.w3.org/2000/svg" fill="currentColor">
<path d="M15 15.0938C15.4142 15.0938 15.75 15.4295 15.75 15.8438V20.25C15.75 20.6642 15.4142 21 15 21H9C8.58579 21 8.25 20.6642 8.25 20.25V15.8438C8.25 15.4295 8.58579 15.0938 9 15.0938C9.41421 15.0938 9.75 15.4295 9.75 15.8438V19.5H14.25V15.8438C14.25 15.4295 14.5858 15.0938 15 15.0938Z" fill="black"/>
<path d="M5.21964 8.75089C5.51253 8.45799 5.98747 8.45799 6.28036 8.75089C6.57326 9.04378 6.57326 9.51872 6.28036 9.81161L4.56073 11.5312H8.75C9.16421 11.5312 9.5 11.867 9.5 12.2812C9.5 12.6955 9.16421 13.0312 8.75 13.0312H4.56073L6.28036 14.7509L6.30692 14.7789C6.57293 15.0733 6.56411 15.5279 6.28036 15.8116C5.99662 16.0954 5.54206 16.1042 5.24765 15.8382L5.21964 15.8116L2.21964 12.8116L2.194 12.7846C2.06944 12.647 2 12.4677 2 12.2812C2 12.0823 2.07898 11.8915 2.21964 11.7509L5.21964 8.75089Z" fill="black"/>
<path d="M17.7196 8.75089C18.0125 8.45799 18.4875 8.45799 18.7804 8.75089L21.7804 11.7509C21.921 11.8915 22 12.0823 22 12.2812C22 12.4677 21.9306 12.647 21.806 12.7846L21.7804 12.8116L18.7804 15.8116L18.7523 15.8382C18.4579 16.1042 18.0034 16.0954 17.7196 15.8116C17.4359 15.5279 17.4271 15.0733 17.6931 14.7789L17.7196 14.7509L19.4393 13.0312H15.25C14.8358 13.0312 14.5 12.6955 14.5 12.2812C14.5 11.867 14.8358 11.5312 15.25 11.5312H19.4393L17.7196 9.81161C17.4267 9.51872 17.4267 9.04378 17.7196 8.75089Z" fill="black"/>
<path d="M15 3C15.4142 3 15.75 3.33579 15.75 3.75V8.15625C15.75 8.57046 15.4142 8.90625 15 8.90625C14.5858 8.90625 14.25 8.57046 14.25 8.15625V4.5H9.75V8.15625C9.75 8.57046 9.41421 8.90625 9 8.90625C8.58579 8.90625 8.25 8.57046 8.25 8.15625V3.75C8.25 3.33579 8.58579 3 9 3H15Z" fill="black"/>
</svg>

<svg xmlns="http://www.w3.org/2000/svg" width="24" height="24" fill="currentColor" viewBox="0 0 24 24">
  <path d="M15 15.094a.75.75 0 0 1 .75.75v4.406A.75.75 0 0 1 15 21H9a.75.75 0 0 1-.75-.75v-4.406a.75.75 0 1 1 1.5 0V19.5h4.5v-3.656a.75.75 0 0 1 .75-.75ZM5.22 8.75a.75.75 0 0 1 1.06 1.062l-1.72 1.72h4.19a.75.75 0 0 1 0 1.5H4.56l1.72 1.719.027.028a.75.75 0 0 1-1.06 1.06l-.027-.027-3-3-.026-.027a.75.75 0 0 1 .026-1.034l3-3Zm12.5 0a.75.75 0 0 1 1.06 0l3 3a.75.75 0 0 1 .026 1.035l-.026.027-3 3-.028.026a.75.75 0 0 1-1.059-1.06l.027-.027 1.72-1.72h-4.19a.75.75 0 1 1 0-1.5h4.19l-1.72-1.72a.75.75 0 0 1 0-1.06ZM15 3a.75.75 0 0 1 .75.75v4.406a.75.75 0 0 1-1.5 0V4.5h-4.5v3.656a.75.75 0 0 1-1.5 0V3.75A.75.75 0 0 1 9 3h6Z"/>
</svg>
